img/poezd.svg

<svg id="poezd_svg" viewBox="0 0 30 29" fill="none" xmlns="http://www.w3.org/2000/svg">
    <g clip-path="url(#clip0)">
        <path d="M12.661 10.6079H17.8475C18.0823 10.6079 18.2736 10.4166 18.2736 10.1818C18.2736 9.9469 18.0823 9.75562 17.8475 9.75562H12.661C12.4261 9.75562 12.2349 9.9469 12.2349 10.1818C12.2349 10.4166 12.4261 10.6079 12.661 10.6079Z"
              fill="#ACACAC"/>
        <path d="M11.1622 19.9492C10.4794 19.9492 9.92737 20.5037 9.92737 21.1841C9.92737 21.8669 10.4818 22.4189 11.1622 22.4189C11.845 22.4189 12.3971 21.8645 12.3971 21.1841C12.3971 20.5013 11.845 19.9492 11.1622 19.9492Z"
              fill="#ACACAC"/>
        <path d="M19.4599 22.4029C20.1331 22.2936 20.5903 21.6593 20.481 20.9861C20.3718 20.3129 19.7375 19.8558 19.0643 19.965C18.3911 20.0743 17.9339 20.7086 18.0432 21.3818C18.1524 22.055 18.7867 22.5121 19.4599 22.4029Z"
              fill="#ACACAC"/>
        <path d="M20.4915 7.36328H10.046C8.46245 7.36328 7.17432 8.65142 7.17432 10.235V22.4093C7.17432 23.9323 8.36802 25.1793 9.86923 25.2713L7.96366 29.0025C7.85713 29.2132 7.93945 29.4698 8.1501 29.5764C8.21306 29.6078 8.27843 29.6224 8.34381 29.6224C8.49877 29.6224 8.64889 29.5376 8.72395 29.3899L9.56657 27.741H20.8886C20.9685 27.741 21.0411 27.7192 21.1041 27.6805L21.8692 29.3705C21.9394 29.5279 22.0968 29.6224 22.2591 29.6224C22.3172 29.6224 22.3777 29.6103 22.4358 29.5836C22.6513 29.4868 22.7457 29.235 22.6489 29.0195L20.9419 25.2422C22.3148 25.0291 23.3704 23.8403 23.3704 22.4069V10.2374C23.3632 8.65142 22.075 7.36328 20.4915 7.36328ZM9.99998 26.8887L10.8208 25.281H20.0145L20.7409 26.8887H9.99998ZM22.0823 22.4093C22.0823 23.2882 21.368 24.0001 20.4915 24.0001H10.046C9.16705 24.0001 8.45277 23.2858 8.45277 22.4093V10.2374C8.45277 9.35844 9.16705 8.64415 10.046 8.64415H20.4915C21.3704 8.64415 22.0823 9.35844 22.0823 10.2374V22.4093Z"
              fill="#ACACAC"/>
        <path d="M19.046 11.7407H11.4891C10.586 11.7407 9.85229 12.4744 9.85229 13.3775V16.6778C9.85229 17.5809 10.586 18.3146 11.4891 18.3146H19.046C19.9492 18.3146 20.6828 17.5809 20.6828 16.6778V13.3775C20.6852 12.4744 19.9492 11.7407 19.046 11.7407ZM19.8305 16.6778C19.8305 17.1112 19.4794 17.4623 19.046 17.4623H11.4891C11.0557 17.4623 10.7046 17.1112 10.7046 16.6778V13.3775C10.7046 12.9441 11.0557 12.593 11.4891 12.593H19.046C19.4794 12.593 19.8305 12.9441 19.8305 13.3775V16.6778Z"
              fill="#ACACAC"/>
        <path d="M15 1C6.72881 1 0 7.72881 0 16C0 20.1114 1.62954 23.9467 4.5908 26.8015C4.78208 26.9879 5.08959 26.9806 5.27603 26.7893C5.46247 26.5981 5.45521 26.2906 5.26392 26.1041C2.49395 23.4334 0.968523 19.845 0.968523 16C0.968523 8.26392 7.26392 1.96852 15 1.96852C22.7361 1.96852 29.0315 8.26392 29.0315 16C29.0315 19.9056 27.385 23.6634 24.5133 26.3148C24.3172 26.4964 24.3051 26.8015 24.4867 27C24.5811 27.1041 24.7119 27.155 24.8426 27.155C24.9588 27.155 25.0775 27.1114 25.1719 27.0266C28.2421 24.1937 30.0024 20.1743 30.0024 16C30 7.72881 23.2712 1 15 1Z"
              fill="#ACACAC"/>
    </g>
    <defs>
        <clipPath id="clip0">
            <rect y="0.257812" width="30" height="28.643" fill="white"/>
        </clipPath>
    </defs>
</svg>

<svg viewBox="0 0 30 29" fill="none" xmlns="http://www.w3.org/2000/svg"><g clip-path="url(#a)" fill="#000"><path d="M12.661 10.608h5.187a.427.427 0 0 0 0-.852H12.66a.427.427 0 0 0 0 .852zm-1.499 9.342a1.235 1.235 0 1 0 .001 2.47 1.235 1.235 0 0 0 0-2.47zm8.298 2.453a1.235 1.235 0 1 0-.396-2.438 1.235 1.235 0 0 0 .396 2.438z"/><path d="M20.491 7.363H10.046a2.875 2.875 0 0 0-2.872 2.872v12.174a2.873 2.873 0 0 0 2.695 2.862l-1.905 3.732a.426.426 0 1 0 .76.387l.843-1.649h11.322c.08 0 .152-.022.215-.06l.765 1.69a.428.428 0 0 0 .78-.351l-1.707-3.778a2.874 2.874 0 0 0 2.428-2.835v-12.17a2.886 2.886 0 0 0-2.879-2.874zM10 26.89l.82-1.608h9.195l.726 1.608H10zm12.082-4.48c0 .88-.714 1.591-1.59 1.591H10.045a1.594 1.594 0 0 1-1.593-1.59V10.236c0-.879.714-1.593 1.593-1.593H20.49c.88 0 1.591.714 1.591 1.593V22.41z"/><path d="M19.046 11.74h-7.557c-.903 0-1.637.734-1.637 1.637v3.3c0 .904.734 1.638 1.637 1.638h7.557c.903 0 1.637-.734 1.637-1.637v-3.3a1.636 1.636 0 0 0-1.637-1.637zm.785 4.938a.784.784 0 0 1-.785.784h-7.557a.784.784 0 0 1-.784-.784v-3.3c0-.434.35-.785.784-.785h7.557c.433 0 .785.351.785.784v3.3z"/><path d="M15 1C6.729 1 0 7.729 0 16c0 4.111 1.63 7.947 4.59 10.802a.485.485 0 0 0 .674-.698A13.92 13.92 0 0 1 .969 16C.969 8.264 7.264 1.969 15 1.969c7.736 0 14.032 6.295 14.032 14.031 0 3.906-1.647 7.663-4.519 10.315a.485.485 0 0 0 .659.712A15.046 15.046 0 0 0 30.002 16C30 7.729 23.272 1 15 1z"/></g><defs><clipPath id="a"><path fill="#000" d="M0 .258h30v28.643H0z"/></clipPath></defs></svg>
